X: 8
T: Piper's Despair, The
Z: Fernando Durbán Galnares
S: https://thesession.org/tunes/336#setting47927
R: reel
M: 4/4
L: 1/8
K: Edor
|:"Em"EFGA BAFA|"Em"BBAB dBAF|"D"D2 DF ADFA|"Bm"BBAB "D"dBAF|
"Em"EFGA BAFA|"Em"BBAB dBAF|"D"DEFA dfaf|"Bm"gfed "Em"Be e2:|
|:"Em"e2ge begf|"Em"efga bfaf|"D"dfff dfaf|"D"dfff "Bm"dfaf|
"Em"e2ge begf|"Em"efga bfaf|"D"dcdf a2 af|"Bm"gfed "Em"Be e2:|

